X: 1
T: R\"attvikspolska efter Per Hans
O: Bruce Sagan
R: Rattviks-polska
Z: John Chambers <jc@trillian.mit.edu>
M: 3/4
L: 1/16
K: C
|: G2EG c4 c3(d | c2)Bc d4 d4 | (e3d) c4 c2Bc | (d2B2) G4 G3(A |
|  G2)EG c4 c3(d | c2)Bc d4 d4 | (e3d) c4 c2Bc | (d2B2) G4 G3(B | d2)Bd c8 :|
(B2 \
|: c3)c a4 f3(f | a2)a2 g4 e4 | (fe)fg (a3g) f2e2 | d3c BcBA G4 |
|  G2G2 a4 f3(f | a2)a2 g4 e4 | (fe)fg (a3g) f2e2 | d3c BcBA G3(B | d2)Bd c8 :|
